X:1
T:La Crosada
R:bourree a trois temps
A:France
F:http://simonwascher.info
Z:abc transcription Simon Wascher
M:3/8
L:1/16
K:C
g4ef | g4ef | g2f2e2 | d6 |
d2e2f2 | g3ag2 | f2e2d2 |1 e4c2 :|\
                        [2 c4 ||
|: c2 |\
def2g2 | d4g2 | agf2e2 | d2e2c2 |
def2g2 | d4g2 | agf2e2 | d4 :|
|: G2 |\
c2defe | d4e2 | c2dedc | B2G2G2 |
c2defe | d4e2 | c2dedB |1 c4 :|\
                       [2 c6 |]
